X:7301
T:Humors of Whiskey, The
T:Dever the Dancer
R:slip jig
E:13
I:speed 350
M:9/8
K:G
BEE BEF G2A|BEE BAG FGA|BEE BEF G2A|B^cd ABG FED:|*
d2d cAF G2B|ded def gfe|ded cAF G2A|Bcd ABG FED:|**
